X:55
T: Xiu hua deng]                   , Blumen auf d. Lampe sticken)
N: C0072
O: China,Shanxi, Qitai
S: I, 277]
N: neues Volkslied. Alle 4 klingen leicht erhoeht.
N: Hier ist die 3. Strophe notiert. In Strophe 1 und 2 fehlt die Wieder-
N: holung der letzten Phrase. Vorspiel weggelassen.
R: Wuge, Yangge, Jinzhong yangge. Xin minge]
M: 4/4
L: 1/16
K: F
z2f2e2d2A2f2e2g2 | d2A2c3dcdcGABA2 |
z2B2A2A2G3Ac3d | c3EG3Ac3GF4 |
c2D2F4z2A4c2 | d3fA3GA2D2F4 |
f3ed3fA2A2c2df | e2d2B2AGF3GABA2 |
z2f2e2g2d2A2c2df | e2d2B2A2c3GF4

@@@ Tune index: 6056
